CCSS/G2.ccss
CCSS   

DESCRIPTOR "LG OLED55G2"
ORIGINATOR "Interpolation by aron7awol of measurement by dutchflea"
CREATED "Sat Feb 25 12:40:00 2023"
REFERENCE "X-Rite i1 Pro 2"
REFERENCE_FILENAME "C:\Users\MacMini\AppData\Roaming\DisplayCAL\storage\i1 Pro 2 & LG TV SSCR2 2023-02-25 12-37-49\i1 Pro 2 & LG TV SSCR2 2023-02-25 12-37-49.ti3"
REFERENCE_HASH "md5:a4b0400180d97699d01568f7266ff4ac"
FIT_METHOD "ΔE*94"
MANUFACTURER_ID "GSM"
MANUFACTURER "LG Electronics"
DISPLAY "LG TV SSCR2 55G2"
TECHNOLOGY "LED WOLED"
DISPLAY_TYPE_REFRESH "NO"
SPECTRAL_BANDS "351"
SPECTRAL_START_NM "380.000000"
SPECTRAL_END_NM "730.000000"
SPECTRAL_NORM "1.000000"

NUMBER_OF_FIELDS 352
BEGIN_DATA_FORMAT
SAMPLE_ID SPEC_380 SPEC_381 SPEC_382 SPEC_383 SPEC_384 SPEC_385 SPEC_386 SPEC_387 SPEC_388 SPEC_389 SPEC_390 SPEC_391 SPEC_392 SPEC_393 SPEC_394 SPEC_395 SPEC_396 SPEC_397 SPEC_398 SPEC_399 SPEC_400 SPEC_401 SPEC_402 SPEC_403 SPEC_404 SPEC_405 SPEC_406 SPEC_407 SPEC_408 SPEC_409 SPEC_410 SPEC_411 SPEC_412 SPEC_413 SPEC_414 SPEC_415 SPEC_416 SPEC_417 SPEC_418 SPEC_419 SPEC_420 SPEC_421 SPEC_422 SPEC_423 SPEC_424 SPEC_425 SPEC_426 SPEC_427 SPEC_428 SPEC_429 SPEC_430 SPEC_431 SPEC_432 SPEC_433 SPEC_434 SPEC_435 SPEC_436 SPEC_437 SPEC_438 SPEC_439 SPEC_440 SPEC_441 SPEC_442 SPEC_443 SPEC_444 SPEC_445 SPEC_446 SPEC_447 SPEC_448 SPEC_449 SPEC_450 SPEC_451 SPEC_452 SPEC_453 SPEC_454 SPEC_455 SPEC_456 SPEC_457 SPEC_458 SPEC_459 SPEC_460 SPEC_461 SPEC_462 SPEC_463 SPEC_464 SPEC_465 SPEC_466 SPEC_467 SPEC_468 SPEC_469 SPEC_470 SPEC_471 SPEC_472 SPEC_473 SPEC_474 SPEC_475 SPEC_476 SPEC_477 SPEC_478 SPEC_479 SPEC_480 SPEC_481 SPEC_482 SPEC_483 SPEC_484 SPEC_485 SPEC_486 SPEC_487 SPEC_488 SPEC_489 SPEC_490 SPEC_491 SPEC_492 SPEC_493 SPEC_494 SPEC_495 SPEC_496 SPEC_497 SPEC_498 SPEC_499 SPEC_500 SPEC_501 SPEC_502 SPEC_503 SPEC_504 SPEC_505 SPEC_506 SPEC_507 SPEC_508 SPEC_509 SPEC_510 SPEC_511 SPEC_512 SPEC_513 SPEC_514 SPEC_515 SPEC_516 SPEC_517 SPEC_518 SPEC_519 SPEC_520 SPEC_521 SPEC_522 SPEC_523 SPEC_524 SPEC_525 SPEC_526 SPEC_527 SPEC_528 SPEC_529 SPEC_530 SPEC_531 SPEC_532 SPEC_533 SPEC_534 SPEC_535 SPEC_536 SPEC_537 SPEC_538 SPEC_539 SPEC_540 SPEC_541 SPEC_542 SPEC_543 SPEC_544 SPEC_545 SPEC_546 SPEC_547 SPEC_548 SPEC_549 SPEC_550 SPEC_551 SPEC_552 SPEC_553 SPEC_554 SPEC_555 SPEC_556 SPEC_557 SPEC_558 SPEC_559 SPEC_560 SPEC_561 SPEC_562 SPEC_563 SPEC_564 SPEC_565 SPEC_566 SPEC_567 SPEC_568 SPEC_569 SPEC_570 SPEC_571 SPEC_572 SPEC_573 SPEC_574 SPEC_575 SPEC_576 SPEC_577 SPEC_578 SPEC_579 SPEC_580 SPEC_581 SPEC_582 SPEC_583 SPEC_584 SPEC_585 SPEC_586 SPEC_587 SPEC_588 SPEC_589 SPEC_590 SPEC_591 SPEC_592 SPEC_593 SPEC_594 SPEC_595 SPEC_596 SPEC_597 SPEC_598 SPEC_599 SPEC_600 SPEC_601 SPEC_602 SPEC_603 SPEC_604 SPEC_605 SPEC_606 SPEC_607 SPEC_608 SPEC_609 SPEC_610 SPEC_611 SPEC_612 SPEC_613 SPEC_614 SPEC_615 SPEC_616 SPEC_617 SPEC_618 SPEC_619 SPEC_620 SPEC_621 SPEC_622 SPEC_623 SPEC_624 SPEC_625 SPEC_626 SPEC_627 SPEC_628 SPEC_629 SPEC_630 SPEC_631 SPEC_632 SPEC_633 SPEC_634 SPEC_635 SPEC_636 SPEC_637 SPEC_638 SPEC_639 SPEC_640 SPEC_641 SPEC_642 SPEC_643 SPEC_644 SPEC_645 SPEC_646 SPEC_647 SPEC_648 SPEC_649 SPEC_650 SPEC_651 SPEC_652 SPEC_653 SPEC_654 SPEC_655 SPEC_656 SPEC_657 SPEC_658 SPEC_659 SPEC_660 SPEC_661 SPEC_662 SPEC_663 SPEC_664 SPEC_665 SPEC_666 SPEC_667 SPEC_668 SPEC_669 SPEC_670 SPEC_671 SPEC_672 SPEC_673 SPEC_674 SPEC_675 SPEC_676 SPEC_677 SPEC_678 SPEC_679 SPEC_680 SPEC_681 SPEC_682 SPEC_683 SPEC_684 SPEC_685 SPEC_686 SPEC_687 SPEC_688 SPEC_689 SPEC_690 SPEC_691 SPEC_692 SPEC_693 SPEC_694 SPEC_695 SPEC_696 SPEC_697 SPEC_698 SPEC_699 SPEC_700 SPEC_701 SPEC_702 SPEC_703 SPEC_704 SPEC_705 SPEC_706 SPEC_707 SPEC_708 SPEC_709 SPEC_710 SPEC_711 SPEC_712 SPEC_713 SPEC_714 SPEC_715 SPEC_716 SPEC_717 SPEC_718 SPEC_719 SPEC_720 SPEC_721 SPEC_722 SPEC_723 SPEC_724 SPEC_725 SPEC_726 SPEC_727 SPEC_728 SPEC_729 SPEC_730 
END_DATA_FORMAT

NUMBER_OF_SETS 4
BEGIN_DATA
1 -0.00735773 0.10631894 0.206327789 0.27482183 0.302279978 0.286032738 0.241365682 0.186153988 0.120102136 0.054461168 0.00846555 -0.012263264 -0.009180158 0.00039374 0.007731923 0.013989644 0.01854048 0.021346985 0.021369338 0.018571957 0.0136766 0.006763751 -0.001220463 -0.004759342 -0.001378131 0.00832285 0.021323673 0.03415305 0.047517834 0.057776395 0.0579359 0.047296505 0.02842918 0.011134698 0.000945768 -0.002464334 0.008079785 0.038608279 0.091498433 0.157652386 0.217283 0.268838968 0.316421298 0.36944583 0.436081109 0.52321013 0.63722539 0.786551959 0.988387746 1.254948018 1.59506 2.032843729 2.600237763 3.338543817 4.289130438 5.490140367 7.003374205 8.891421271 11.18527152 13.94404228 17.248 21.11332971 25.54154682 30.57245322 36.19087891 42.32467859 48.86518374 55.67736115 62.65200432 69.5811601 76.1724 82.26793776 87.72462864 92.30819641 95.870428 98.36087656 99.72520512 99.94983157 99.04880048 97.16146085 94.5418 91.30537766 87.5627976 83.51742177 79.31818064 75.05655742 70.79709072 66.58949334 62.50058496 58.57643129 54.847 51.34085687 48.07683152 45.05306233 42.26830976 39.72451641 37.40530624 35.29023252 33.36901328 31.62007343 30.0131 28.52998993 27.15440384 25.86480817 24.64471264 23.48359297 22.36908624 21.29172383 20.24688784 19.23658613 18.2693 17.34835484 16.47845232 15.67147897 14.93672752 14.2802207 13.71056512 13.23615431 12.86283792 12.59816736 12.4509 12.42572223 12.52540176 12.75054609 13.10151936 13.5787043 14.18028336 14.90354083 15.74474496 16.70182833 17.7741 18.95386667 20.23160352 21.60209782 23.05425584 24.57308477 26.12434848 27.6727752 29.2028696 30.69458227 32.1263 33.48350944 34.75506032 35.93115281 37.00608272 37.97897266 38.84782512 39.61453866 40.28703312 40.88327714 41.4309 41.94604727 42.44729328 42.97429148 43.55149136 44.18415703 44.89196272 45.68808336 46.5688256 47.51085585 48.4713 49.43039379 50.365756 51.22446289 51.97341728 52.60272695 53.09630304 53.44457494 53.64407792 53.71334449 53.6912 53.59090747 53.42402336 53.21664004 52.98582912 52.73899805 52.48002864 52.20983237 51.930564 51.63913768 51.328 50.99153808 50.62261664 50.20940421 49.74172944 49.21366211 48.60259184 47.88771606 47.06881824 46.1443451 45.1141 43.98457327 42.76990688 41.50286225 40.20857728 38.90057695 37.61403728 36.38245397 35.21922208 34.13395569 33.1304 32.2144666 31.38871056 30.64596902 29.98137584 29.39393125 28.87338 28.40923685 27.99868368 27.63734086 27.3204 27.045469 26.81216688 26.62458435 26.48529616 26.39507344 26.35550672 26.36855415 26.4366944 26.56346324 26.7534 27.00954479 27.3351016 27.73571582 28.21451984 28.77047813 29.41185472 30.14471825 30.96313296 31.85680893 32.8101 33.80932736 34.8385416 35.87618839 36.90114912 37.89478203 38.82433936 39.65743479 40.37814528 40.96478915 41.3926 41.64981398 41.73112784 41.63765232 41.37256304 40.93958633 40.35539984 39.6394656 38.80329824 37.86481442 36.8466 35.76513929 34.6368184 33.48429947 32.3250784 31.17066406 30.0336816 28.92460999 27.8528736 26.818923 25.8151 24.84225211 23.90539616 23.02459217 22.20823312 21.45463477 20.74081184 20.04302029 19.3602048 18.69275096 18.0452 17.41687624 16.80793216 16.22500056 15.67157248 15.14751172 14.65338192 14.18919779 13.75572464 13.35001304 12.9659 12.60155021 12.25759616 11.94241988 11.65906486 11.40540984 11.17350179 10.95493654 10.74899466 10.55246795 10.3609 10.17229281 9.98721936 9.814722379 9.658577488 9.516573789 9.386994784 9.267193965 9.157247232 9.048917301 8.9269 8.787053399 8.631062192 8.475875559 8.328980992 8.188321914 8.044337632 7.8869798 7.716409232 7.532337592 7.33537 7.125453952 6.903169776 6.671145897 6.431566336 6.1861575 5.936412896 5.684096822 5.430616416 5.181150858 4.9442 4.722498284 4.516043344 4.318718132 4.127763568 3.943743594 3.770284176 3.610851565 3.465292 3.33039379 3.19976 3.07229303 2.948483568 2.830497938 2.719526688 2.615102305 2.520732448 2.439615026 2.371420848 2.314243416 2.26433 2.220236568 2.180411296 2.141033384 2.099686906 2.055676092 2.007336579 1.953544651 1.894607928 1.831710757 1.76699
2 0.0641093 0.057704686 0.050933109 0.041208506 0.028113516 0.013176538 0.001277801 -0.003122247 0.00044589 0.009175235 0.016837 0.022276031 0.025482774 0.02685915 0.026544399 0.024254375 0.020644564 0.016491224 0.011942675 0.007640248 0.00458475 0.002961676 0.002830629 0.004915688 0.009262131 0.01538446 0.021148174 0.024316722 0.025249508 0.021812193 0.00997039 -0.010432109 -0.03721889 -0.062463145 -0.081824696 -0.095992209 -0.098645059 -0.08468657 -0.053167276 -0.01356774 0.0148152 0.028083153 0.027531092 0.022412098 0.017268668 0.010979414 0.005164817 0.001161768 -0.000163857 0.000196524 -0.000460249 -0.002466422 -0.005425436 -0.007758118 -0.008716903 -0.008435255 -0.007407077 -0.006172894 -0.004627482 -0.002805385 -0.000783753 0.001322144 0.003586191 0.007101198 0.012279045 0.019004064 0.025496165 0.029988609 0.032418002 0.033245254 0.0336137 0.033712428 0.033602057 0.03353141 0.0336727 0.034073493 0.035045491 0.036824547 0.039410075 0.042334903 0.0446867 0.046280929 0.047064068 0.046767382 0.045284911 0.04251796 0.039603767 0.037645167 0.036880672 0.036393541 0.0341268 0.029825509 0.024065825 0.019484354 0.017345839 0.017413739 0.01917852 0.021940908 0.025817577 0.029786785 0.0319161 0.031769124 0.029541726 0.026634648 0.023793112 0.020994493 0.01845473 0.016352042 0.014707592 0.013850364 0.0143656 0.016415688 0.019642084 0.02164986 0.021306211 0.018482774 0.015938744 0.016375225 0.019976603 0.024613309 0.0257727 0.022761348 0.016384475 0.010534902 0.007123479 0.005880184 0.006239862 0.007449837 0.009823362 0.012671906 0.0145499 0.015060039 0.01447595 0.015181337 0.018221065 0.023446133 0.028544254 0.031204271 0.031469655 0.030116638 0.0288724 0.027881791 0.027188799 0.028046079 0.030966241 0.03615222 0.040147213 0.039639015 0.034466038 0.027021662 0.0223755 0.021393575 0.023654554 0.02700011 0.030346726 0.033888968 0.037293104 0.040271995 0.042722185 0.044428019 0.0450954 0.04460058 0.043185151 0.042625884 0.043713378 0.046347623 0.048907407 0.04973241 0.048990866 0.046718625 0.043064 0.038012463 0.032007701 0.027739925 0.026466571 0.028128692 0.030611255 0.031702022 0.03150579 0.030133575 0.0279953 0.025026171 0.021402803 0.018813163 0.018072909 0.019368793 0.02043391 0.019089726 0.015601242 0.011496985 0.00974005 0.011218553 0.016344151 0.025178039 0.038383062 0.057945931 0.081339026 0.106767575 0.138140611 0.180185857 0.239065 0.321759589 0.436518305 0.593104995 0.802114494 1.074096588 1.426586129 1.877384024 2.436173768 3.117294397 3.93822 4.906852925 6.028039168 7.308470241 8.749460608 10.34741484 12.09041053 13.96371257 15.95953197 18.05896424 20.2341 22.47079508 24.75870512 27.08968188 29.45466304 31.84138672 34.25292528 36.69142088 39.1431808 41.59251957 44.02 46.40830577 48.73692352 50.97262524 53.08912176 55.06933047 56.88626624 58.51512417 59.94029248 61.15373582 62.1553 62.93770679 63.49284016 63.81044399 63.88569808 63.72140664 63.31004032 62.6480918 61.74712864 60.62723073 59.3179 57.84140919 56.22455728 54.51560143 52.75056896 50.94908711 49.14937152 47.38524688 45.6744768 44.01473222 42.3838 40.78285823 39.21874016 37.70843365 36.25954512 34.87278594 33.52334944 32.18702997 30.8659072 29.57122309 28.3257 27.135996 26.00699744 24.94895616 23.96892448 23.06947461 22.25923056 21.54461693 20.924088 20.39010183 19.9288 19.53259782 19.19255504 18.89025387 18.61231408 18.35126172 18.09789616 17.84425793 17.585712 17.31636671 17.0296 16.72330552 16.39992608 16.07521719 15.7577488 15.44780781 15.14726224 14.85711531 14.57884736 14.31121097 14.0506 13.79575246 13.54586832 13.30102032 13.06007408 12.82058164 12.579764 12.33445639 12.08257952 11.81885706 11.5353 11.23015943 10.90257424 10.54655506 10.1608648 9.747233984 9.32414784 8.910429667 8.51027704 8.122036213 7.73698 7.356642587 6.986425504 6.641160715 6.32835552 6.047467578 5.796663472 5.572609705 5.375089808 5.197111435 5.02605 4.857903979 4.691134672 4.526102954 4.362568944 4.199212383 4.037665728 3.879869025 3.72535064 3.575516148 3.43314 3.299013417 3.172190176 3.045565148 2.915978098 2.783858806 2.655518674 2.537426307 2.430481276 2.332311967 2.23692
3 0.0996709 0.205952887 0.297168027 0.352681388 0.362064896 0.323222213 0.25646651 0.184754496 0.107542235 0.036869572 -0.00698456 -0.018111087 0.000257076 0.020644136 0.029467445 0.028326196 0.021608054 0.014854298 0.006142254 -0.002215671 -0.00508692 -0.001480574 0.007699112 0.017564232 0.025448531 0.031190492 0.034515111 0.035292606 0.03362816 0.027826669 0.0146104 -0.005846702 -0.031454101 -0.055746768 -0.075058438 -0.090051906 -0.093093148 -0.077803571 -0.043341158 3.86E-05 0.0314931 0.0468405 0.047289941 0.041592177 0.034140863 0.02398132 0.013489831 0.004870177 -0.001091624 -0.00413946 -0.00466401 -0.002434022 0.002318181 0.006895155 0.010086239 0.01217886 0.01466872 0.019240684 0.026186973 0.03605882 0.0494599 0.066931695 0.089074236 0.116976736 0.15108215 0.190674368 0.238034292 0.294816871 0.359803504 0.42831274 0.49222 0.548957948 0.596430917 0.628473867 0.642040554 0.636642148 0.618503163 0.594383319 0.565076656 0.530681076 0.489912 0.444004364 0.394986512 0.346108442 0.299713651 0.256902551 0.220354186 0.192487466 0.175286749 0.167381074 0.164352 0.167639389 0.180357779 0.205927213 0.248877899 0.315095977 0.409863075 0.539673256 0.710969363 0.938811495 1.24593 1.639201244 2.123358301 2.715168755 3.41871609 4.224791371 5.116925083 6.073452709 7.081055968 8.101200341 9.07397 9.978039018 10.79862418 11.50172027 12.07360782 12.51901781 12.87403112 13.18165921 13.45346613 13.73062938 14.0767 14.51914459 15.07134928 15.72400177 16.47905424 17.35310391 18.34832736 19.46689285 20.70570512 22.09519802 23.6951 25.50073859 27.4843496 29.59957586 31.80285888 34.07124141 36.25854864 38.22504192 39.95548992 41.45531277 42.7639 43.88421112 44.84450576 45.8102403 46.86204896 47.99117266 49.14717936 50.2655677 51.35601376 52.34085509 53.074 53.5317869 53.73868048 53.78921879 53.74446176 53.60842188 53.52271152 53.61856447 53.8999432 54.33093125 54.8242 55.35384153 55.87392448 56.20070292 56.2375504 55.98161445 55.45951344 54.7163593 53.74560416 52.62891184 51.5199 50.45555479 49.43794288 48.44335271 47.45529408 46.47935352 45.42185488 44.19074254 42.78497488 41.21282752 39.5023 37.66392998 35.7217432 33.76334769 31.84105264 29.96653438 28.15840032 26.42838732 24.78984496 23.22840984 21.7053 20.21546729 18.76037144 17.33845164 15.95021395 14.5961973 13.29324994 12.05881246 10.89503733 9.805629693 8.79375 7.861190316 7.007385488 6.225659028 5.511505424 4.863218281 4.276439936 3.746661995 3.270572592 2.844585154 2.46502 2.128247232 1.830955366 1.571319309 1.346714014 1.154246855 0.986624038 0.83691661 0.702408294 0.583629862 0.484536 0.404026714 0.339835707 0.289114157 0.249618564 0.220319673 0.196431624 0.173525239 0.150158347 0.128021556 0.111973 0.102320584 0.097964013 0.095456401 0.092996307 0.090470547 0.088864059 0.089225758 0.09117522 0.09389683 0.0960048 0.097303527 0.097760454 0.096592904 0.09354226 0.088368999 0.084829831 0.086471 0.093486053 0.103020301 0.109078 0.110614323 0.108073172 0.103752732 0.098861468 0.093298508 0.087603743 0.082310286 0.077297072 0.073738447 0.0738846 0.078254294 0.085772615 0.089647801 0.086761191 0.077385071 0.066932692 0.060980191 0.059347734 0.061095465 0.0638771 0.067538129 0.071853688 0.074296466 0.0736949 0.069926472 0.066197023 0.065727438 0.068656117 0.073573737 0.0773001 0.079345829 0.080132968 0.081833378 0.085424992 0.090712154 0.096340209 0.100926283 0.104412992 0.107313866 0.11082 0.115207124 0.120269222 0.124205993 0.126303712 0.126665396 0.128218218 0.133808469 0.143441443 0.155788832 0.167975 0.179366695 0.189810851 0.199378121 0.208043283 0.215960727 0.221300139 0.22253108 0.219056067 0.214744358 0.217568 0.229010521 0.247252602 0.261758919 0.267480434 0.26477957 0.259232906 0.256676339 0.257067618 0.258369495 0.256017 0.249563064 0.24006701 0.231644495 0.226333437 0.223931031 0.223599179 0.224278597 0.225987854 0.228375556 0.2309 0.233494842 0.235779059 0.23496118 0.229949093 0.220828055 0.212819448 0.211081694 0.21605125 0.225537923 0.234412 0.241854294 0.248501427 0.257915821 0.271558792 0.288780357 0.307201036 0.324275545 0.339075076 0.351914939 0.364429
4 -0.0285086 0.00256108 0.029288247 0.04420808 0.044158978 0.029652857 0.009387593 -0.007535609 -0.020828473 -0.029556767 -0.0333251 -0.031431 -0.024363877 -0.017369789 -0.013100106 -0.011451042 -0.011222488 -0.01095668 -0.010794562 -0.010623248 -0.0103096 -0.009743322 -0.008496965 -0.004389892 0.003389166 0.014199579 0.026771464 0.039530561 0.053042438 0.063522811 0.0635756 0.052456084 0.032747758 0.014393689 0.002945234 -0.00182686 0.005828437 0.03064645 0.074982773 0.131142308 0.182171 0.226993921 0.269591357 0.319065962 0.383459616 0.470368977 0.582477765 0.724888474 0.914718411 1.168819387 1.50527 1.950517801 2.535997069 3.2960028 4.269162778 5.495127738 7.040971147 8.974704095 11.32657504 14.15761537 17.5516 21.52283971 26.06917691 31.2278261 36.9784351 43.24301793 49.89109637 56.76589414 63.75479712 70.6417643 77.1244 83.04232297 88.25700032 92.55916104 95.81466016 97.97369063 98.99070704 98.85914566 97.59803488 95.33791049 92.3114 88.63378056 84.42137184 79.88683411 75.18739968 70.41875039 65.67074976 61.01764936 56.5300304 52.25554314 48.2212 44.45524895 40.97274384 37.75470384 34.78927456 32.07610234 29.5893448 27.30049698 25.19721792 23.26014108 21.4657 19.79807707 18.24396325 16.79040266 15.42650933 14.14308086 12.93565045 11.80127756 10.73504725 9.734127477 8.79727 7.922502034 7.10928528 6.36340812 5.686961984 5.078134844 4.533373632 4.04861479 3.621852256 3.250685328 2.93263 2.664680408 2.443291456 2.263325979 2.120459488 2.011195547 1.932614432 1.881793931 1.855239424 1.848600515 1.85669 1.875879487 1.903139232 1.936366949 1.973061168 2.010283633 2.04504128 2.074474448 2.097051856 2.10947893 2.10705 2.088519483 2.054439536 2.008737349 1.953972944 1.890949531 1.82209832 1.749944406 1.676183328 1.602958897 1.53271 1.467042194 1.407341072 1.355357822 1.312212192 1.27835918 1.253901792 1.238602585 1.232365312 1.233925669 1.241 1.252396105 1.26731088 1.286087394 1.308194128 1.3325025 1.355185664 1.372505875 1.383419392 1.388104823 1.38817 1.383503931 1.373401504 1.355420919 1.328615026 1.293447199 1.252278077 1.207676374 1.16006239 1.110497169 1.06034 1.010422796 0.961141693 0.911650996 0.861765995 0.811976434 0.763236024 0.716494276 0.671866518 0.629671745 0.590306 0.553866185 0.520146173 0.488068277 0.457050405 0.427166367 0.397792069 0.368434779 0.338958653 0.310314033 0.284464 0.261640162 0.241629282 0.22416945 0.208964103 0.196081831 0.182747496 0.166360571 0.147043423 0.126054272 0.106005 0.087395675 0.070921708 0.060428402 0.057644998 0.062534592 0.070755198 0.077783003 0.08302058 0.087309835 0.0932761 0.101105753 0.109627105 0.113046509 0.108838718 0.097272854 0.084765196 0.077812321 0.076699933 0.079629606 0.0821579 0.083691628 0.084691351 0.08725593 0.092213956 0.099251007 0.106079395 0.11045788 0.112563867 0.112947021 0.112793 0.112181065 0.111652993 0.115192905 0.124502608 0.139417539 0.154872976 0.165729609 0.171846064 0.174193065 0.175365 0.17582806 0.175653478 0.174504824 0.172444994 0.16940166 0.169375456 0.175988377 0.189493211 0.205940765 0.217211 0.222004129 0.22094495 0.216203626 0.209117936 0.199267711 0.192050003 0.192519426 0.201121685 0.214736688 0.226486 0.235339948 0.241441035 0.24437198 0.244091432 0.240221898 0.237739642 0.241480592 0.251988414 0.266573588 0.279121 0.288514043 0.295545021 0.30539108 0.320213634 0.339296625 0.358371971 0.373063001 0.383000944 0.388828159 0.392597 0.39472966 0.394799328 0.389079787 0.376214819 0.356312121 0.33786981 0.329075263 0.330733021 0.337570568 0.337963 0.330022303 0.315269683 0.301617337 0.292809739 0.288287473 0.284909587 0.279372626 0.271340491 0.26271421 0.257771 0.257319737 0.259710266 0.254650183 0.237605846 0.209037055 0.1797292 0.160568555 0.152230981 0.150812808 0.147032 0.139404267 0.12939021 0.125555953 0.131521333 0.146627352 0.161302323 0.166058159 0.16027497 0.148297576 0.140021 0.137070806 0.138160932 0.135970538 0.127453444 0.113954111 0.099670507 0.089115329 0.081371258 0.079615389 0.0899939 0.113436111 0.14679284 0.174069947 0.187411789 0.187727097 0.178553632 0.164693711 0.149147654 0.132851131 0.114642
END_DATA